svg/other/hand_heart_fill.svg

<?xml version="1.0" encoding="UTF-8"?>
<svg width="24px" height="24px" viewBox="0 0 24 24" version="1.1" xmlns="http://www.w3.org/2000/svg" xmlns:xlink="http://www.w3.org/1999/xlink">
    <title>hand_heart_fill</title>
    <g id="Icon" stroke="none" stroke-width="1" fill="none" fill-rule="evenodd">
        <g id="Other" transform="translate(-768.000000, -48.000000)">
            <g id="hand_heart_fill" transform="translate(768.000000, 48.000000)">
                <path d="M24,0 L24,24 L0,24 L0,0 L24,0 Z M12.5935,23.2578 L12.5819,23.2595 L12.5109,23.295 L12.4919,23.2987 L12.4767,23.295 L12.4057,23.2595 C12.3958,23.2564 12.387,23.259 12.3821,23.2649 L12.378,23.2758 L12.3609,23.7031 L12.3659,23.7235 L12.3769,23.7357 L12.4805,23.8097 L12.4953,23.8136 L12.5071,23.8097 L12.6107,23.7357 L12.6233,23.7197 L12.6267,23.7031 L12.6096,23.2758 C12.6076,23.2657 12.601,23.2593 12.5935,23.2578 Z M12.8584,23.1453 L12.8445,23.1473 L12.6598,23.2397 L12.6499,23.2499 L12.6472,23.2611 L12.6651,23.6906 L12.6699,23.7034 L12.6784,23.7105 L12.8793,23.8032 C12.8914,23.8069 12.9022,23.803 12.9078,23.7952 L12.9118,23.7812 L12.8777,23.1665 C12.8753,23.1546 12.8674,23.147 12.8584,23.1453 Z M12.143,23.1473 C12.1332,23.1424 12.1222,23.1453 12.1156,23.1526 L12.1099,23.1665 L12.0758,23.7812 C12.0751,23.7927 12.0828,23.8019 12.0926,23.8046 L12.1083,23.8032 L12.3092,23.7105 L12.3186,23.7024 L12.3225,23.6906 L12.3404,23.2611 L12.3372,23.2485 L12.3278,23.2397 L12.143,23.1473 Z" id="MingCute" fill-rule="nonzero"></path>
                <path d="M20.9989,6.85406 C21.0321,5.3738 20.278,4.07987 19.1658,3.43188 C18.2121,2.87618 17.0309,2.82501 16,3.46857 C14.9691,2.82501 13.7879,2.87618 12.8342,3.43188 C11.722,4.07987 10.9679,5.3738 11.0011,6.85406 C11.0439,8.76288 12.5222,10.31767 14.6854,11.6027 C15.087,11.8412 15.5162,12.1113 16,12.1113 C16.4838,12.1113 16.913,11.8412 17.3146,11.6027 C19.4778,10.31767 20.9561,8.76288 20.9989,6.85406 Z" id="路径" fill="#09244B"></path>
                <path d="M8.38905,12.3277 L6.3994,13.5713 C6.0387,13.218 5.54479,13.0002 5,13.0002 L4,13.0002 C2.89543,13.0002 2,13.8956 2,15.0002 L2,19.0002 C2,20.1047 2.89543,21.0002 4,21.0002 L5,21.0002 C5.74028,21.0002 6.38663,20.598 6.73244,20.0002 L7.52786,20.0002 C7.68311,20.0002 7.83622,20.0363 7.97508,20.1057 L10.3252,21.2808 C11.3197,21.7781 12.4516,21.9296 13.5419,21.7116 L16.7513,21.0697 C17.1905,20.9818 17.6046,20.7967 17.9629,20.528 L21.0334,18.2251 C21.6419,17.7687 22,17.0525 22,16.2919 L22,16.2362 C22,14.4655 20.1366,13.3138 18.5528,14.1057 C17.8632,14.4505 17.226,14.981 16.5846,15.4086 C16.9556,14.2956 16.366,13.0609 15.1949,12.7681 L11.4792,11.8392 C10.4255,11.5758 9.31005,11.7521 8.38905,12.3277 Z" id="路径" fill="#09244B"></path>
            </g>
        </g>
    </g>
</svg>

<svg xmlns="http://www.w3.org/2000/svg" width="24" height="24"><g fill="none" fill-rule="evenodd"><path d="M24 0v24H0V0h24ZM12.594 23.258l-.012.002-.071.035-.02.004-.014-.004-.071-.036c-.01-.003-.019 0-.024.006l-.004.01-.017.428.005.02.01.013.104.074.015.004.012-.004.104-.074.012-.016.004-.017-.017-.427c-.002-.01-.009-.017-.016-.018Zm.264-.113-.014.002-.184.093-.01.01-.003.011.018.43.005.012.008.008.201.092c.012.004.023 0 .029-.008l.004-.014-.034-.614c-.003-.012-.01-.02-.02-.022Zm-.715.002a.023.023 0 0 0-.027.006l-.006.014-.034.614c0 .012.007.02.017.024l.015-.002.201-.093.01-.008.003-.011.018-.43-.003-.012-.01-.01-.184-.092Z"/><path fill="#09244B" d="M20.999 6.854c.033-1.48-.721-2.774-1.833-3.422-.954-.556-2.135-.607-3.166.037-1.03-.644-2.212-.593-3.166-.037-1.112.648-1.866 1.942-1.833 3.422.043 1.909 1.521 3.464 3.684 4.749.402.238.831.508 1.315.508s.913-.27 1.315-.508c2.163-1.285 3.641-2.84 3.684-4.749ZM8.389 12.328l-1.99 1.243A1.994 1.994 0 0 0 5 13.001H4a2 2 0 0 0-2 2v4a2 2 0 0 0 2 2h1a2 2 0 0 0 1.732-1h.796a1 1 0 0 1 .447.105l2.35 1.175a5 5 0 0 0 3.217.43l3.21-.641c.439-.088.853-.273 1.21-.542l3.071-2.303A2.417 2.417 0 0 0 22 16.292v-.056c0-1.77-1.863-2.922-3.447-2.13-.69.345-1.327.875-1.968 1.303.37-1.113-.219-2.348-1.39-2.64l-3.716-.93a4 4 0 0 0-3.09.489Z"/></g></svg>
